src/assets/img/components/socials/yout.svg

<svg width="18" height="13" viewBox="0 0 18 13" fill="none" xmlns="http://www.w3.org/2000/svg">
<path d="M17.3847 2.2775C17.1902 1.55457 16.6203 0.984687 15.8974 0.790023C14.5769 0.428711 9.29471 0.428711 9.29471 0.428711C9.29471 0.428711 4.01273 0.428711 2.69221 0.776325C1.98328 0.970783 1.39939 1.55467 1.20493 2.2775C0.857422 3.59792 0.857422 6.33629 0.857422 6.33629C0.857422 6.33629 0.857422 9.08847 1.20493 10.3951C1.3996 11.1179 1.96938 11.6878 2.69231 11.8825C4.02663 12.2439 9.29492 12.2439 9.29492 12.2439C9.29492 12.2439 14.5769 12.2439 15.8974 11.8963C16.6204 11.7017 17.1902 11.1318 17.3849 10.409C17.7323 9.08847 17.7323 6.3502 17.7323 6.3502C17.7323 6.3502 17.7462 3.59792 17.3847 2.2775ZM7.61298 8.8661V3.80649L12.0054 6.33629L7.61298 8.8661Z" fill="#7481FF"/>
</svg>

<svg width="18" height="13" fill="none" xmlns="http://www.w3.org/2000/svg"><path d="M17.385 2.277A2.114 2.114 0 0 0 15.897.79C14.577.429 9.295.429 9.295.429s-5.282 0-6.603.347a2.157 2.157 0 0 0-1.487 1.502C.857 3.598.857 6.335.857 6.335s0 2.752.348 4.06a2.115 2.115 0 0 0 1.487 1.486c1.335.362 6.603.362 6.603.362s5.282 0 6.602-.348a2.114 2.114 0 0 0 1.488-1.487c.347-1.32.347-4.059.347-4.059s.014-2.752-.347-4.072Zm-9.772 6.59v-5.06l4.392 2.53-4.392 2.53Z" fill="#7481FF"/></svg>
